X: 1
T: Pat Molloy's
M: 4/4
L: 1/8
D: Teada - Teada
R: reel
K: Gmaj
d2ge dBGB|dcBc ABGE|D2B,D G2 (3Bcd|dg~g2 fgag|
bg~g2 dBGB|dcBc ABGE|D2B,D G,B,DG|FGAc BGG2:|
|:dBBA GBdg|bgge ^cd2B|~c2ec BcdB|AdBA ABcA|
bgga agfa|~g3e dBGB|Bcec gcec|BAGF GABc:|
